X: 10331
Q: "Slowish"
M: C
L: 1/16
K: D
g2 |\
f2a2d2a2 bagf a2d2 | gb3a3f eee2 e2g2 |
f2a2d2a2 bagf a2d2 | gb3a2f2 ddd2 d2a2 |\
bagf d2a2 bagf a2d2 | gb3a3f eee2 e2f2 |\
d3fe3c d3B A2F2 | GB3 A3F DDD2 D2 :|


